src/components/00-materials/images-raw/Psychological Disability.svg

<svg width="96" height="96" viewBox="0 0 96 96" fill="none" xmlns="http://www.w3.org/2000/svg">
<path d="M45 67.7199C45.3166 67.853 45.6566 67.9215 46 67.9215C46.3434 67.9215 46.6834 67.853 47 67.7199L54.34 64.7799L54.83 69.4999C54.9483 70.6458 55.4402 71.7211 56.23 72.5599L62.03 78.6699C62.0503 78.6974 62.0613 78.7307 62.0613 78.7649C62.0613 78.7991 62.0503 78.8323 62.03 78.8599C62.0144 78.889 61.9914 78.9136 61.9633 78.9311C61.9352 78.9487 61.9031 78.9586 61.87 78.9599H31.44C31.3923 78.9608 31.3455 78.9468 31.3061 78.9199C31.2667 78.8931 31.2366 78.8546 31.22 78.8099C31.1924 78.7721 31.1775 78.7266 31.1775 78.6799C31.1775 78.6331 31.1924 78.5876 31.22 78.5499L37 71.9999C37.537 71.3812 37.8319 70.5891 37.83 69.7699V64.5199L45 67.7199ZM33.18 31.6099C32.2692 34.5604 31.8106 37.6319 31.82 40.7199C31.82 52.7199 38.46 62.4699 46.65 62.4699C52.19 62.4699 57 57.9999 59.56 51.3999L33.18 31.6099Z" stroke="#00008F" stroke-width="2" stroke-linecap="round" stroke-linejoin="round"/>
<path d="M33.17 25.9L63.82 48.63L33.17 25.9ZM64.81 39.74L47.51 26.25L64.81 39.74ZM47 17C45.6226 17.0071 44.2612 17.2963 43 17.85L60.94 31.93C58.86 23.22 53.41 17 47 17Z" stroke="#00008F" stroke-width="2" stroke-miterlimit="10"/>
<path d="M46.52 31.2002L64.81 44.5402" stroke="#00008F" stroke-width="2" stroke-linejoin="round"/>
<path d="M19.42 61.8898L18.73 56.8898C18.6801 56.4947 18.6801 56.0949 18.73 55.6998V55.4798C18.8822 55.0082 19.1933 54.6041 19.6103 54.3363C20.0272 54.0686 20.5242 53.9539 21.0163 54.0117C21.5084 54.0695 21.9652 54.2963 22.3087 54.6534C22.6523 55.0105 22.8612 55.4758 22.9 55.9698L23.79 62.8698C23.9427 64.0565 23.8338 65.2622 23.471 66.4024C23.1082 67.5425 22.5003 68.5895 21.69 69.4698L17.84 73.6498L17.61 73.9598" stroke="#00008F" stroke-width="2" stroke-linecap="round" stroke-linejoin="round"/>
<path d="M13.35 64.4501C13.35 64.0801 11.8 56.0701 11.8 56.0701C11.6319 55.188 11.7995 54.2749 12.27 53.5101L16.14 47.1701L22 41.0001C22.2091 40.7797 22.4923 40.6445 22.7951 40.6205C23.0978 40.5965 23.3988 40.6854 23.64 40.8701C24.079 41.2239 24.3638 41.7341 24.4347 42.2935C24.5056 42.8529 24.3569 43.418 24.02 43.8701L20 49.0001L18.72 55.4701M13.35 64.4501C13.3676 65.0776 13.1541 65.6897 12.75 66.1701L11 68.2501L13.35 64.4501ZM76.58 61.8901L77.27 56.8901C77.3199 56.495 77.3199 56.0952 77.27 55.7001V55.4801C77.1178 55.0085 76.8067 54.6044 76.3897 54.3367C75.9728 54.0689 75.4758 53.9542 74.9837 54.012C74.4916 54.0698 74.0348 54.2967 73.6912 54.6538C73.3477 55.0108 73.1387 55.4761 73.1 55.9701L72.21 62.8701C72.0573 64.0568 72.1662 65.2625 72.529 66.4027C72.8917 67.5428 73.4996 68.5898 74.31 69.4701L78.16 73.6501L78.39 73.9601M18.23 74.4801C18.4447 74.6675 18.5776 74.9315 18.6 75.2156C18.6224 75.4997 18.5327 75.7813 18.35 76.0001L16.79 77.8301C16.6996 77.9384 16.5885 78.0276 16.4631 78.0924C16.3378 78.1572 16.2008 78.1963 16.0602 78.2075C15.9196 78.2187 15.7781 78.2016 15.6441 78.1574C15.5102 78.1132 15.3864 78.0427 15.28 77.9501L7.64998 71.4701C7.44944 71.2847 7.32583 71.0307 7.3036 70.7585C7.28138 70.4862 7.36217 70.2156 7.52998 70.0001L9.08998 68.1701C9.17678 68.0581 9.28514 67.9647 9.40865 67.8954C9.53216 67.826 9.66832 67.7821 9.80909 67.7662C9.94985 67.7504 10.0924 67.7629 10.2282 67.8031C10.3641 67.8433 10.4905 67.9102 10.6 68.0001L18.23 74.4801Z" stroke="#00008F" stroke-width="2" stroke-linecap="round" stroke-linejoin="round"/>
<path d="M82.65 64.4501C82.65 64.0801 84.2 56.0701 84.2 56.0701C84.3681 55.188 84.2004 54.2749 83.73 53.5101L79.86 47.1701L74 41.0001C73.7909 40.7797 73.5077 40.6445 73.2049 40.6205C72.9021 40.5965 72.6012 40.6854 72.36 40.8701C71.921 41.2239 71.6361 41.7341 71.5653 42.2935C71.4944 42.8529 71.6431 43.418 71.98 43.8701L76 49.0001L77.28 55.4701M82.65 64.4501C82.6323 65.0776 82.8459 65.6897 83.25 66.1701L85 68.2501L82.65 64.4501ZM77.77 74.4801C77.5552 74.6675 77.4224 74.9315 77.4 75.2156C77.3776 75.4997 77.4673 75.7813 77.65 76.0001L79.21 77.8301C79.3004 77.9384 79.4115 78.0276 79.5368 78.0924C79.6621 78.1572 79.7991 78.1963 79.9398 78.2075C80.0804 78.2187 80.2219 78.2016 80.3558 78.1574C80.4898 78.1132 80.6136 78.0427 80.72 77.9501L88.35 71.4701C88.5505 71.2847 88.6741 71.0307 88.6964 70.7585C88.7186 70.4862 88.6378 70.2156 88.47 70.0001L86.91 68.1701C86.8232 68.0581 86.7148 67.9647 86.5913 67.8954C86.4678 67.826 86.3316 67.7821 86.1909 67.7662C86.0501 67.7504 85.9076 67.7629 85.7718 67.8031C85.6359 67.8433 85.5095 67.9102 85.4 68.0001L77.77 74.4801Z" stroke="#00008F" stroke-width="2" stroke-linecap="round" stroke-linejoin="round"/>
</svg>

<svg width="96" height="96" viewBox="0 0 96 96" fill="none" xmlns="http://www.w3.org/2000/svg"><path d="M45 67.72a2.58 2.58 0 002 0l7.34-2.94.49 4.72a5.25 5.25 0 001.4 3.06l5.8 6.11a.16.16 0 010 .19.19.19 0 01-.16.1H31.44a.23.23 0 01-.22-.15.22.22 0 010-.26L37 72a3.39 3.39 0 00.83-2.23v-5.25l7.17 3.2zM33.18 31.61a30.57 30.57 0 00-1.36 9.11c0 12 6.64 21.75 14.83 21.75C52.19 62.47 57 58 59.56 51.4L33.18 31.61z" stroke="#00008F" stroke-width="2" stroke-linecap="round" stroke-linejoin="round"/><path d="M33.17 25.9l30.65 22.73L33.17 25.9zm31.64 13.84l-17.3-13.49 17.3 13.49zM47 17a10.08 10.08 0 00-4 .85l17.94 14.08C58.86 23.22 53.41 17 47 17z" stroke="#00008F" stroke-width="2" stroke-miterlimit="10"/><path d="M46.52 31.2l18.29 13.34" stroke="#00008F" stroke-width="2" stroke-linejoin="round"/><path d="M19.42 61.89l-.69-5a4.749 4.749 0 010-1.19v-.22a2.14 2.14 0 014.17.49l.89 6.9a8.2 8.2 0 01-2.1 6.6l-3.85 4.18-.23.31" stroke="#00008F" stroke-width="2" stroke-linecap="round" stroke-linejoin="round"/><path d="M13.35 64.45c0-.37-1.55-8.38-1.55-8.38a3.6 3.6 0 01.47-2.56l3.87-6.34L22 41a1.23 1.23 0 011.64-.13 2.18 2.18 0 01.38 3L20 49l-1.28 6.47m-5.37 8.98a2.56 2.56 0 01-.6 1.72L11 68.25l2.35-3.8zm63.23-2.56l.69-5c.05-.395.05-.795 0-1.19v-.22a2.14 2.14 0 00-4.17.49l-.89 6.9a8.2 8.2 0 002.1 6.6l3.85 4.18.23.31m-60.16.52a1.09 1.09 0 01.12 1.52l-1.56 1.83a1.06 1.06 0 01-1.51.12l-7.63-6.48A1.09 1.09 0 017.53 70l1.56-1.83A1.058 1.058 0 0110.6 68l7.63 6.48z" stroke="#00008F" stroke-width="2" stroke-linecap="round" stroke-linejoin="round"/><path d="M82.65 64.45c0-.37 1.55-8.38 1.55-8.38a3.6 3.6 0 00-.47-2.56l-3.87-6.34L74 41a1.23 1.23 0 00-1.64-.13 2.18 2.18 0 00-.38 3L76 49l1.28 6.47m5.37 8.98a2.56 2.56 0 00.6 1.72L85 68.25l-2.35-3.8zm-4.88 10.03a1.09 1.09 0 00-.12 1.52l1.56 1.83a1.06 1.06 0 001.51.12l7.63-6.48a1.09 1.09 0 00.12-1.47l-1.56-1.83A1.059 1.059 0 0085.4 68l-7.63 6.48z" stroke="#00008F" stroke-width="2" stroke-linecap="round" stroke-linejoin="round"/></svg>
